X:1
T:Boney's Defeat
M:2/2
L:1/4
K:C
 C- E| G G2 A G2| C3/2 D/2 E2 G3/2 E/2| D C2 C/2E/2 G2| A G c2 C3/2 D/2|\
M:3/2
 E- A G3 E| D C2G/2-A/2 c c| c c e3/2- d/2 c2|
M:3/2
 e d/2c/2 c2- e c| A G3 C E|
M:2/2
 G2 A G| c2 C D| E A G3| E D C3|||
